SVG_Azure_Grouped/Data/SQL Database Restore.svg

<?xml version="1.0" encoding="UTF-8" standalone="no"?>
<!-- Generated by Microsoft Visio, SVG Export SQL Database Restore.svg Page-1 -->

<svg
   xmlns:dc="http://purl.org/dc/elements/1.1/"
   xmlns:cc="http://creativecommons.org/ns#"
   xmlns:rdf="http://www.w3.org/1999/02/22-rdf-syntax-ns#"
   xmlns:svg="http://www.w3.org/2000/svg"
   xmlns="http://www.w3.org/2000/svg"
   xmlns:sodipodi="http://sodipodi.sourceforge.net/DTD/sodipodi-0.dtd"
   xmlns:inkscape="http://www.inkscape.org/namespaces/inkscape"
   width="0.78358763in"
   height="0.74791718in"
   viewBox="0 0 56.418269 53.849997"
   xml:space="preserve"
   class="st2"
   version="1.1"
   id="svg24"
   sodipodi:docname="SQL Database Restore.svg"
   style="font-size:12px;overflow:visible;color-interpolation-filters:sRGB;fill:none;fill-rule:evenodd;stroke-linecap:square;stroke-miterlimit:3"
   inkscape:version="0.92.5 (2060ec1f9f, 2020-04-08)"><metadata
   id="metadata30"><rdf:RDF><cc:Work
       rdf:about=""><dc:format>image/svg+xml</dc:format><dc:type
         rdf:resource="http://purl.org/dc/dcmitype/StillImage" /></cc:Work></rdf:RDF></metadata><defs
   id="defs28" /><sodipodi:namedview
   pagecolor="#ffffff"
   bordercolor="#666666"
   borderopacity="1"
   objecttolerance="10"
   gridtolerance="10"
   guidetolerance="10"
   inkscape:pageopacity="0"
   inkscape:pageshadow="2"
   inkscape:window-width="640"
   inkscape:window-height="480"
   id="namedview26"
   showgrid="false"
   inkscape:zoom="1.5612034"
   inkscape:cx="37.610694"
   inkscape:cy="30.223085"
   inkscape:window-x="0"
   inkscape:window-y="0"
   inkscape:window-maximized="0"
   inkscape:current-layer="svg24" />
	<style
   type="text/css"
   id="style2">
	<![CDATA[
		.st1 {fill:#000000;stroke:none;stroke-linecap:butt;stroke-width:25.5}
		.st2 {fill:none;fill-rule:evenodd;font-size:12px;overflow:visible;stroke-linecap:square;stroke-miterlimit:3}
	]]>
	</style>

	<g
   id="g22"
   transform="translate(-25.5,-25.5043)">
		<title
   id="title4">Page-1</title>
		<g
   id="group19069-1"
   transform="translate(25.5,-34.0157)">
			<title
   id="title6">SQL Database Restore.19069</title>
			<g
   id="group19070-2">
				<title
   id="title8">Sheet.19070</title>
				<g
   id="shape19071-3"
   transform="translate(0,-28.6299)">
					<title
   id="title10">Sheet.19071</title>
					<path
   d="M 23.13,113.37 H 0 V 89 Z"
   class="st1"
   id="path12"
   inkscape:connector-curvature="0"
   style="fill:#000000;stroke:none;stroke-width:25.5;stroke-linecap:butt" />
				</g>
				<g
   id="shape19072-5"
   transform="translate(7.33341)">
					<title
   id="title15">Sheet.19072</title>
					<path
   d="m 22.56,113.37 c -9.02,0 -17.2,-3.96 -22.28,-10.48 l 5.93,-5.67 c 3.38,5.1 9.3,8.78 16.07,8.78 10.44,0 18.9,-8.5 18.62,-18.99 -0.28,-10.49 -8.75,-18.99 -19.46,-18.99 -6.49,0 -12.41,3.4 -15.52,8.5 L 0,70.29 c 4.79,-6.52 12.69,-10.77 21.44,-10.77 14.95,0 27.36,12.18 27.64,27.21 0.28,15.02 -11.57,26.64 -26.52,26.64 z"
   class="st1"
   id="path17"
   inkscape:connector-curvature="0"
   style="fill:#000000;stroke:none;stroke-width:25.5;stroke-linecap:butt" />
				</g>
			</g>
		</g>
	</g>
</svg>

<?xml version="1.0" encoding="UTF-8" standalone="no"?>
<!DOCTYPE svg PUBLIC "-//W3C//DTD SVG 1.1//EN" "http://www.w3.org/Graphics/SVG/1.1/DTD/svg11.dtd">
<!-- Generated by Microsoft Visio, SVG Export SQL Database Restore.svg Page-1 -->
<svg xmlns="http://www.w3.org/2000/svg" xmlns:xlink="http://www.w3.org/1999/xlink" xmlns:ev="http://www.w3.org/2001/xml-events"
		width="1.49189in" height="1.57464in" viewBox="0 0 107.416 113.374" xml:space="preserve" color-interpolation-filters="sRGB"
		class="st2">
	<style type="text/css">
	<![CDATA[
		.st1 {fill:#000000;stroke:none;stroke-linecap:butt;stroke-width:25.5}
		.st2 {fill:none;fill-rule:evenodd;font-size:12px;overflow:visible;stroke-linecap:square;stroke-miterlimit:3}
	]]>
	</style>

	<g>
		<title>Page-1</title>
		<g id="group18633-1" transform="translate(25.5,-34.0157)">
			<title>SQL Database Restore.18633</title>
			<g id="group18634-2">
				<title>Sheet.18634</title>
				<g id="shape18635-3" transform="translate(0,-28.6299)">
					<title>Sheet.18635</title>
					<path d="M23.13 113.37 L0 113.37 L0 89 L23.13 113.37 Z" class="st1"/>
				</g>
				<g id="shape18636-5" transform="translate(7.33341,0)">
					<title>Sheet.18636</title>
					<path d="M22.56 113.37 C13.54 113.37 5.36 109.41 0.28 102.89 L6.21 97.22 C9.59 102.32 15.51 106 22.28 106 C32.72
								 106 41.18 97.5 40.9 87.01 C40.62 76.52 32.15 68.02 21.44 68.02 C14.95 68.02 9.03 71.42 5.92 76.52
								 L0 70.29 C4.79 63.77 12.69 59.52 21.44 59.52 C36.39 59.52 48.8 71.7 49.08 86.73 C49.36 101.75 37.51
								 113.37 22.56 113.37 Z" class="st1"/>
				</g>
			</g>
		</g>
	</g>
</svg>
